X: 7032
T: Children Of The Little Dancing Bush
R: reel
M: 4/4
K: Edorian
FA|:BEED EFGA|BeeB dfB/c/d|efed BdAG|FDFA dAFd|
BEED EFGA|BeeB dfB/c/d|efed BdAG|FDAF E2 FA:|
|:Bee^d eBef|g3 a gfeg|fddc dAFA|
[1 dfAd fded|Bee^d eBef|gBef gfeg|fddc dBAF|G2 EF E2 GA:|
[2 dfAd fagf|eB~B2 gfeg|fdaf gfef|eBB^A B2 B=A|G2 EF E2 GA||

